component-icons/svg/scheduler.svg

<?xml version="1.0" encoding="utf-8"?>
<!-- Generator: Adobe Illustrator 14.0.0, SVG Export Plug-In . SVG Version: 6.00 Build 43363)  -->
<!DOCTYPE svg PUBLIC "-//W3C//DTD SVG 1.1//EN" "http://www.w3.org/Graphics/SVG/1.1/DTD/svg11.dtd">
<svg version="1.1" id="Layer_1" xmlns="http://www.w3.org/2000/svg" xmlns:xlink="http://www.w3.org/1999/xlink" x="0px" y="0px"
	 width="24px" height="24px" viewBox="0 0 24 24" enable-background="new 0 0 24 24" xml:space="preserve">
<path fill="#818181" d="M20,19.172L17.172,22H4V5H2v17v2h2h14l4-4V5h-2V19.172z M15,0h2v4h-2V0z M7,0h2v4H7V0z M0,1h6v2H0V1z M18,1
	v2h4l2-2H18z M10,1h4v2h-4V1z M6,8v2h1v2H6v2h1v2H6v2h1v2l2-2h2v2l2-2h2v2l2-2l2-2h-2v-2l2-2h-2v-2l2-2h-2V7h-2v1h-2V7h-2v1H9V7H7v1
	H6z M9,16v-2h2v2H9z M15,16h-2v-2h2V16z M15,10v2h-2v-2H15z M11,10v2H9v-2H11z"/>
</svg>

<svg id="Layer_1" data-name="Layer 1" xmlns="http://www.w3.org/2000/svg" viewBox="0 0 24 24">
  <defs>
    <style>
      .cls-1 {
        fill: gray;
      }
    </style>
  </defs>
  <title>scheduler</title>
  <path class="cls-1" d="M14,1H10V3h4Zm3-1H15V4h2ZM9,0H7V4H9ZM20,19.17,17.17,22H4V5H2V24H18l4-4V5H20ZM6,1H0V3H6Zm0,9H7v2H6v2H7v2H6v2H7v2l2-2h2v2l2-2h2v2l4-4H17V14l2-2H17V10l2-2H17V7H15V8H13V7H11V8H9V7H7V8H6Zm7,0h2v2H13Zm0,4h2v2H13ZM9,10h2v2H9Zm0,4h2v2H9ZM18,1V3h4l2-2Z"/>
</svg>
